X:289
T:Father Kelly's
T:Rossmore Jetty, The
R:reel
C:Father P.J. Kelly
M:4/4
L:1/8
K:G
BAGB AGEG|DGGF G2AB|c2AB cBAG|EAAG FDGA|
BAGB AGEG|DGGF GABc|d2Bd gdBd|1 cAFA ~G3A:|2 cAFA GABc||
|:d2Bd gdBc|d2Bd gdBd|e2ee agfe|defg agfe|
d2Bd gdBc|d2Bd gdBd|cBAc BAGB|1 AGFA G2Bc:|2 AGFA ~G3A||
